X:1
T:O Magnify the Lord with Me
T:O Magnify the Lord with Me
T:Lelia Naylor Morris
T:Lelia Naylor Morris, 1906
T:Public Domain Courtesy of the Cyber Hymnal™
T:Public Domain Courtesy of the Cyber Hymnal™
C:Lelia Naylor Morris
Z:Public Domain
Z:Courtesy of the Cyber Hymnal™
%%score ( 1 2 ) ( 3 4 )
L:1/8
Q:1/4=110
M:4/4
K:Bb
V:1 treble 
V:2 treble 
V:3 bass 
V:4 bass 
V:1
 [DF]2 | [DB]3 [CA] [DB]2 [Fc]2 | [Fd]3 [=E_d] [F=d]2 [Fd]2 | [Fe]2 [Fd]2 [=Ec]2 [EB]2 | [Ec]6 F2 | %5
w: 1.~O|mag- ni- fy the|Lord with me, Ye|peo- ple of His|choice. Let|
w: 2.~O|praise Him for His|ho- li- ness, His|wis- dom, and His|grace; Sing|
w: 3.~Had|I a thou- sand|tongues to sing, The|half could ne’er be|told Of|
 [Fc]3 [F=B] [Fc]2 [Fd]2 | [DB]2 [EB]2 [DB]2 [DB]2 | ([FA][=EG]) ([FA][GB]) [FA]2 [EG]2 | F6 F2 | %9
w: all to whom He|lend- eth breath Now|in * His * name re-|joice. For|
w: prais- es for His|pre- cious blood Which|ran- * somed * all our|race. In|
w: love so rich, so|full and free, Of|bless- * ings * man- i-|fold; Of|
 [EF]2 [EF]2 [EG]2 [EA]2 | [DG]2 [DF]4 [DF]2 | [Fd]2 [Fd]2 [Gd]2 [Fe]2 | [Fd]2 [Fc]4 [EF]2 | %13
w: love’s blest re- ve-|la- tion, For|rest from con- dem-|na- tion, For|
w: ten- der- ness He|sought us; From|depths of sin He|brought us; The|
w: grace that fail- eth|ne- ver, Peace|flow- ing as a|riv- er From|
 [DB]3 [CA] ([DB][Ec]) (de) | (f2 d2) [GB]2 [Gc]2 | d4 c4 | [DB]6 ||"^Refrain" [DF]2 | %18
w: ut- ter- most * sal- *|va- * tion, To|Him give|thanks.||
w: way of life * then *|taught * us. To|Him give|thanks.|Let|
w: God, the glor- * ious *|giv- * er. To|Him give|thanks.||
 [Fd]4- [Fd]>[DB] (3(BA)[FB] | [Gc]2 [EG]4 [FG]2 | [Ee]4- [Ee]>[Gd] [Gc]>[GB] | [FB]2 [FA]4 F2 | %22
w: ||||
w: all * the peo- * ple|praise Thee. Let|all * the peo- ple|praise Thee, Let|
w: ||||
 [Ff]4- [Ff]>[Fd] [Fc]>[FB] | [Gc]2 [Gd]2 [Ge]2 [Fc]2 | [DB]>[DF] [_D=E]>[=DF] [Fd]2 [_Ec]2 | %25
w: |||
w: all * the peo- ple|praise Thy name For-|ev- er and for- ev- er-|
w: |||
 [DB]6 |] %26
w: |
w: more.|
w: |
V:2
 x2 | x8 | x8 | x8 | x6 F2 | x8 | x8 | x8 | F6 F2 | x8 | x8 | x8 | x8 | x6 F2 | F4 x4 | %15
 (F2 F2) (F2 E2) | x6 || x2 | x6 F2 | x8 | x8 | x8 | x8 | x8 | x8 | x6 |] %26
V:3
 [B,,B,]2 | [B,,F,]3 [B,,F,] [B,,B,]2 [F,A,]2 | B,3 B, B,2 B,2 | [A,C]2 B,2 [G,B,]2 [G,C]2 | %4
 [F,A,]6 [F,A,]2 | [F,A,]3 [F,_A,] [F,=A,]2 [F,A,]2 | (B,F,) [B,,G,]2 [B,,F,]2 [B,,F,]2 | %7
 [C,C]2 [C,C]2 [C,C]2 [C,B,]2 | [F,A,]6 [F,A,]2 | [F,A,]2 [F,A,]2 [F,B,]2 [F,C]2 | %10
 [B,,B,]2 [B,,B,]4 [B,,B,]2 | [B,,B,]2 [B,,B,]2 [G,B,]2 [A,C]2 | B,2 [F,A,]4 [F,A,]2 | %13
 B,3 B, B,2 (B,C) | (D2 B,2) [G,D]2 [E,C]2 | ([F,B,]2 [F,B,]2) ([F,A,]2 [F,A,]2) | [B,,F,]6 || %17
 [B,,B,]2 | ([B,,B,]2 [B,,B,]2 [B,,B,]>)B, (3:2:2[B,D]2 [B,D] | [E,E]2 ([E,B,]2 [E,B,]2) [D,=B,]2 | %20
 ([C,C]2 [C,G,]2 [C,C]>)[D,=B,] [E,C]>[=E,C] | [F,D]2 ([F,C]2 [F,C]2) [F,A,]2 | %22
 ([D,B,]2 [D,B,]2 [D,B,]>)[B,,B,] [C,A,]>[D,B,] | [E,B,]2 [D,=B,]2 [C,C]2 [E,G,]2 | %24
 [F,B,]>[F,B,] [_G,B,]>[F,B,] [F,B,]2 [F,A,]2 | [B,,F,]6 |] %26
V:4
 x2 | x8 | B,3 B, B,2 B,2 | x2 B,2 x4 | x8 | x8 | B,,2 x6 | x8 | x8 | x8 | x8 | x8 | B,2 x6 | %13
 B,3 B, x B,2 x | B,4 x4 | x8 | x6 || x2 | x8 | x8 | x8 | x8 | x8 | x8 | x8 | x6 |] %26

